X:6
T:Morgan MacQuarrie
R:reel
D:Lake Bras D'Or, Theresa Morrison
Z:Paul Stewart Cranford (P.S.C.), <http://www.cranfordpub.com>
Q:333
L:1/8
M:C|
K:D
B|A2 FD FAde|f2 ed BABd|F2 AF DFAF|GBAF E2 FG|
A2 FD FAde|f2 ed BABd|G2 Bd Adfa|gbaf d2 d:|
|:e|fdAF GFED|F2 AF GFED|DFAF DGBd|gbaf e2 de|
fdAF GFED|F2 AF GFED|G2 Bd Adfa|gbaf d2 d:|
